X:1
T:Jeremiah Ingalls, 1805 G Major
T:John Leland, 1754-1841 87. 87. 87. 87.
T:The Wandering Pilgrim
T:Treble-Tenor-Bass Transcribed from Ingalls' Christian Harmony , 1805 ; Counter by B. C. Johnston, 2017..
%%score [ 1 2 3 4 ]
L:1/8
Q:1/4=160
M:4/4
K:G
V:1 treble nm="Tr." snm="Tr."
V:2 treble nm="C." snm="C."
V:3 treble-8 nm="T." snm="T."
V:4 bass nm="B." snm="B."
V:1
"^1. Wandering pilgrims, mourning Christians, Weak and tempted lambs of Christ,  Who endure  great  tri–bu–la–tion,   And  with sins  are" D2 D2 G2 G2 | %1
 F2 F2 A2 A2 || B2 B2 d2 B2 | c2 A2 B4 | B2 B2 d2 B2 | B2 B2 G2 B2 || c2 c2 B2 G2 | %7
"^1. much  dis – tressed;                 Christ  has sent  me       to        in   –  vite       you      To     a      rich   and    cost – ly   feast; _____       Let  not" d2 c2 B4- | %8
 B4 z4 | B2 B2 c2 B2 | cd ec B2 G2 || B2 B2 c2 B2 | c2 A2 B4- | B4 d2 B2 | %14
"^1. shame   nor   pride   prevent  you,  Come,  the  sweet  provision  taste." G2 B2 cd ec | %15
 B2 G2 c2 c2 | B2 G2 d2 c2 | B8 |] %18
V:2
"^2. If  you  have  a  heart la–men–ting,   And  bemoan  your  wretched  case,     Come  to  Je – sus  Christ  repenting,    He  will  give you" G2 G2 B2 G2 | %1
 A2 A2 F2 A2 || G2 G2 B2 G2 | G2 Ac B4 | G2 G2 G2 B2 | B2 G2 G2 G2 || E2 C2 D2 C2 | %7
"^2. gos – pel  grace:                           If   you   want   a        heart    to        fear       him,   Love  and serve him   all  your  days, _____        On – ly" D2 A2 G4- | %8
 G4 z4 | G2 G2 E2 D2 | EF GE G2 B2 || G2 G2 E2 D2 | E2 F2 G4- | G4 G2 B2 | %14
"^2. come    to     Christ  and  ask  him,   He   will   guide  your  feet  always." G2 B2 cB cA | %15
 B2 B2 c2 c2 | B2 c2 B2 A2 | G8 |] %18
V:3
"^3. If  your  heart  is  un–be–lie–ving,      Doubting  Jesus'   pardoning    love,     Lay  hard  by  Be–thes–da  wai–ting     Till  the  trou–bled" G2 G2 B2 G2 | %1
 A2 A2 F2 D2 || G2 G2 B2 d2 | G2 AF G4 | G2 G2 B2 A2 | G2 G2 B2 d2 || e2 e2 d2 G2 | %7
"^3. wa – ters  move; ____                If    no    man   ap  –  pears     to       help     you,      All   their  ef–forts  prove  but  talk; ______     Je – sus," B2 A2 G4- | %8
 G4 z4 | d2 d2 e2 d2 | ef ge d2 B2 || d2 d2 e2 d2 | e2 f2 g4- | g4 g2 d2 | %14
"^3. Je  –  sus     he   will   cleanse  you,  Rise,  take  up  your   bed  and  walk." e2 d2 G2 G2 | %15
 B2 d2 e2 e2 | d2 G2 B2 A2 | G8 |] %18
V:4
"^4. If   like  Pe –ter  you  are  sin–king      In    the   sea    of      un   –  be  – lief;     Wait  with patience, always praying,   Christ will send you\n5. Death shall not destroy your comfort, Christ shall guard you through the gloom;  Down he'll send a heavenly convoy,  To   con–vey   you" G,2 G,2 G,2 G,2 | %1
 D,2 D,2 D,2 D,2 || G,2 G,2 G,2 G,2 | C,2 D,2 G,,4 | G,2 G,2 G,2 D,2 | E,2 E,2 G,2 G,2 || %6
 C,2 C,2 B,,2 C,2 | %7
"^4. sweet  re – lief; _____                He   will  give  you    grace     and    glo    –   ry,         All  your  wants  shall  be  supplied, ______    Ca–naan,\n5. to   his    home;                           There  you'll  spend  your  days  in   plea–sure,        Free  from  eve – ry want and care: ______    Come, O!" D,2 D,2 G,,4- | %8
 G,,4 z4 | G,2 G,2 G,2 G,2 | C,2 C,2 G,2 G,2 || G,2 G,2 C2 G,2 | C2 D2 G,4- | G,4 G,2 G,2 | %14
"^4. Ca –naan   lies    be  – fore     you,   Rise   and   cross   the  swelling   tide.\n5. come,  my  bles – sed     Sa – vior,  Fain  my  spi – rit   would  be  there." G,2 G,2 C,2 C,2 | %15
 G,2 G,2 C,2 C,2 | B,,2 C,2 D,2 D,2 | %17
"^______________________________\nA folk hymn (Jackson 1952, no. 41).\n" G,,8 |] %18

